data/chains/V2/gnosis/gnosis.branded.svg

<svg width="24" height="24" viewBox="0 0 24 24" fill="none" xmlns="http://www.w3.org/2000/svg">
<path d="M20.3618 6.99999L20.5524 7.3C21.4975 8.80983 21.9991 10.555 21.9999 12.3362C22.01 14.8819 20.9636 17.3275 19.0893 19.1387C17.2162 20.9492 14.6669 21.9781 12.0001 22H11.9812C6.47628 22 1.9813 17.6362 2.00006 12.2999C2.00006 10.5094 2.51442 8.77248 3.46693 7.26374L3.63817 6.99061L4.55253 7.87249C4.3813 8.11812 4.22879 8.39123 4.12379 8.69124C3.95192 9.14657 3.87517 9.63234 3.89829 10.1185C3.9214 10.6047 4.04387 11.081 4.25817 11.5181C4.69129 12.4068 5.47504 13.0961 6.43815 13.4368C7.00589 13.6287 7.6095 13.6907 8.2044 13.6181C8.79684 13.5465 9.3653 13.3414 9.86681 13.0181L12.0001 15.0911L14.4375 12.7275C14.916 13.0202 15.4526 13.2046 16.01 13.2681C16.5693 13.3328 17.136 13.2757 17.6712 13.1005C18.2043 12.9255 18.69 12.6375 19.09 12.2581C19.4904 11.8798 19.7971 11.4132 19.986 10.8957C20.1747 10.378 20.2403 9.82352 20.1775 9.27621C20.1101 8.72157 19.9122 8.19078 19.6 7.72749L20.3618 6.99999ZM5.67629 8.95436L8.54314 11.718C8.19028 11.9948 7.75341 12.1426 7.30502 12.1369C6.76605 12.1339 6.24868 11.9247 5.85941 11.5518C5.67194 11.3726 5.52277 11.157 5.42094 10.9184C5.3191 10.6799 5.26671 10.4232 5.26691 10.1638C5.26691 9.70934 5.41941 9.29124 5.67629 8.95436ZM15.6762 11.5457L18.5137 8.80936C18.7331 9.12747 18.8574 9.5094 18.8574 9.90942C18.8574 11 17.9424 11.8818 16.8186 11.8818C16.3906 11.8818 16.0093 11.7631 15.6762 11.5457ZM12.0381 13.6181L3.7813 5.59125L4.10505 5.26375C5.10986 4.22541 6.31647 3.40357 7.65064 2.84877C9.00146 2.28563 10.4509 1.99711 11.9143 2.00002H11.9331C14.9518 2.00002 17.8568 3.25438 19.8762 5.42751L20.1906 5.76375L12.0381 13.6181ZM5.12379 5.59125L12.0381 12.2999L18.8568 5.7275C17.9477 4.84324 16.8746 4.14479 15.6981 3.67126C14.5075 3.19095 13.2363 2.94152 11.9525 2.93627H11.9337C9.36194 2.93627 6.96191 3.87251 5.12379 5.59125Z" fill="#3E6957"/>
</svg>

<svg xmlns="http://www.w3.org/2000/svg" width="24" height="24" fill="none" viewBox="0 0 24 24">
    <path fill="#00A6C4" d="m20.362 7 .19.3A9.5 9.5 0 0 1 22 12.336c.01 2.546-1.036 4.992-2.91 6.803S14.666 21.979 12 22h-.019c-5.505 0-10-4.364-9.98-9.7a9.4 9.4 0 0 1 1.466-5.036l.171-.273.915.882a3.4 3.4 0 0 0-.43.818 3.56 3.56 0 0 0 .135 2.827 3.83 3.83 0 0 0 2.18 1.919 4 4 0 0 0 1.766.181 3.94 3.94 0 0 0 1.663-.6L12 15.091l2.438-2.363a3.9 3.9 0 0 0 3.234.373 3.8 3.8 0 0 0 1.418-.843 3.55 3.55 0 0 0 1.087-2.982 3.5 3.5 0 0 0-.577-1.548zM5.676 8.954l2.867 2.764c-.353.277-.79.425-1.238.419a2.1 2.1 0 0 1-1.446-.585 1.92 1.92 0 0 1-.592-1.388c0-.455.152-.873.41-1.21m10 2.592 2.838-2.737c.22.319.343.7.343 1.1 0 1.091-.915 1.973-2.038 1.973-.428 0-.81-.119-1.143-.336m-3.638 2.072L3.781 5.591l.324-.327a10.6 10.6 0 0 1 3.546-2.415A11 11 0 0 1 11.914 2h.02c3.018 0 5.923 1.254 7.942 3.428l.315.336zM5.124 5.591l6.914 6.709 6.819-6.572a9.8 9.8 0 0 0-3.159-2.057c-1.19-.48-2.462-.73-3.745-.735h-.02c-2.571 0-4.971.937-6.81 2.655"/>
</svg>
